X: 56
T: No_149_Song_for_Success_in_a_Race.krn
N: Derived from No_149_Song_for_Success_in_a_Race.krn
%%abc-version 2.0
%%abcx-abcm2ps-target-version 5.9.1 (29 Sep 2008)
%%abc-creator hum2abc beta
%%abcx-conversion-date 2019/03/15 08:37:56
%%humdrum-veritas 2020434944
%%humdrum-veritas-data 875779341
%%linebreak <none>
%%barnumbers 0
L: 1/8
M: 2/4
K: Ab clef=bass
F,F, [I:setbarnb 1]| 
C2C2 | 
CB,A,2 | 
B,2!fermata!B,2 ||  
[M:3/4]B,3/A,/ A, zB,2 ||  
[M:2/4]C2CB, | 
A,F,E,2 | 
F,2!fermata!F,2 | 
F,E, E, z | 
A,2B,2 | 
B,2A,3/E,/ | 
E,2!fermata!F,3/F,/ | 
F,2E,E, | 
z2F,E, | 
A,2A,2 | 
E,2C, z ||  
[M:3/4]F,2F,F,F,2 | 
F,2F,4 |]  



